X: 18
T:Maid of the Mill, Brackley 3
M:6/8
L:1/8
A:Brackley
P:A(AB3)4A2
K:G
P:A
|:D|GGG B2B|AAA d3|EEE E2D|G3 G2:|
P:B
d|:ddd d2B|ccc c3|EEE E2D|1G3 G2B:||2G3 G2||
